build/images/common/04.svg

<svg width="54" height="36" fill="none" xmlns="http://www.w3.org/2000/svg"><path d="M25.12 14.936c0 2.816-.544 5.328-1.632 7.536-1.056 2.176-2.528 3.888-4.416 5.136-1.856 1.248-3.968 1.872-6.336 1.872-2.368 0-4.496-.624-6.384-1.872-1.856-1.248-3.328-2.96-4.416-5.136C.88 20.264.352 17.752.352 14.936S.88 9.624 1.936 7.448c1.088-2.208 2.56-3.936 4.416-5.184C8.24.984 10.368.344 12.736.344c2.368 0 4.48.64 6.336 1.92 1.888 1.248 3.36 2.976 4.416 5.184 1.088 2.176 1.632 4.672 1.632 7.488zm-6.48 0c0-1.728-.256-3.232-.768-4.512-.48-1.312-1.168-2.336-2.064-3.072a4.705 4.705 0 00-3.072-1.104c-1.184 0-2.224.368-3.12 1.104-.896.736-1.6 1.76-2.112 3.072-.48 1.28-.72 2.784-.72 4.512 0 1.728.24 3.232.72 4.512.512 1.28 1.216 2.288 2.112 3.024.896.736 1.936 1.104 3.12 1.104 1.152 0 2.16-.368 3.024-1.104.896-.736 1.6-1.744 2.112-3.024.512-1.312.768-2.816.768-4.512zm23.82 20.16v-7.152H28.444v-5.712l16.08-20.64h4.368v20.592h4.224v5.76h-4.224v7.152H42.46zm-7.584-12.912h8.304V11.336l-8.304 10.848z" fill="#FCAA23"/></svg>

<svg width="54" height="36" viewBox="0 0 54 36" fill="none" xmlns="http://www.w3.org/2000/svg">
<path d="M25.12 14.936C25.12 17.752 24.576 20.264 23.488 22.472C22.432 24.648 20.96 26.36 19.072 27.608C17.216 28.856 15.104 29.48 12.736 29.48C10.368 29.48 8.24 28.856 6.352 27.608C4.496 26.36 3.024 24.648 1.936 22.472C0.88 20.264 0.352 17.752 0.352 14.936C0.352 12.12 0.88 9.624 1.936 7.448C3.024 5.24 4.496 3.512 6.352 2.264C8.24 0.983999 10.368 0.344 12.736 0.344C15.104 0.344 17.216 0.983999 19.072 2.264C20.96 3.512 22.432 5.24 23.488 7.448C24.576 9.624 25.12 12.12 25.12 14.936ZM18.64 14.936C18.64 13.208 18.384 11.704 17.872 10.424C17.392 9.112 16.704 8.088 15.808 7.352C14.912 6.616 13.888 6.248 12.736 6.248C11.552 6.248 10.512 6.616 9.616 7.352C8.72 8.088 8.016 9.112 7.504 10.424C7.024 11.704 6.784 13.208 6.784 14.936C6.784 16.664 7.024 18.168 7.504 19.448C8.016 20.728 8.72 21.736 9.616 22.472C10.512 23.208 11.552 23.576 12.736 23.576C13.888 23.576 14.896 23.208 15.76 22.472C16.656 21.736 17.36 20.728 17.872 19.448C18.384 18.136 18.64 16.632 18.64 14.936ZM42.4604 35.096V27.944H28.4444V22.232L44.5244 1.592H48.8924V22.184H53.1164V27.944H48.8924V35.096H42.4604ZM34.8764 22.184H43.1804V11.336L34.8764 22.184Z" fill="#FCAA23"/>
</svg>
